src/assets/img/unsorted/emotes/47.svg

<svg xmlns:xlink="http://www.w3.org/1999/xlink" height="100.8" width="132.65" xmlns="http://www.w3.org/2000/svg"><use height="15.4" transform="translate(65.5 65.85)" width="24.45" xlink:href="#a"/><defs><g id="a"><path d="m8.05-.45.6.3q3.5 1.8 3.55 2.8 0 .95-3.15.4l-4.2-.5q1.3-.2 2.3-1.4l.9-1.6m-4.7 2.9L.9 2.3h-3.7l1.3-1.1Q-.45-.15-.35-1.95H.4Q.5-.2 1.55 1.15q.75.95 1.8 1.3m-8.75 0-2.75.4-4.1-.2q0-.95 3.7-2.75L-8-.4q.3.9.9 1.6.75.95 1.7 1.25" fill="#6596cc" fill-opacity=".431" fill-rule="evenodd" transform="translate(12.25 7.7)"/><path d="M.4-1.95v-.35Q.35-4.35 1.55-5.75q1.1-1.45 2.8-1.45 1.65 0 2.8 1.45Q8.3-4.35 8.3-2.3L8.05-.45l-.9 1.6q-1 1.2-2.3 1.4l-.5.05-1-.15q-1.05-.35-1.8-1.3Q.5-.2.4-1.95M-2.8 2.3l-1.5.35-1.1-.2q-.95-.3-1.7-1.25Q-7.7.5-8-.4q-.3-.85-.25-1.85-.05-2 1.15-3.45Q-6-7.15-4.3-7.15q1.65 0 2.8 1.45t1.15 3.45v.3Q-.45-.15-1.5 1.2l-1.3 1.1" fill="#fff" fill-rule="evenodd" transform="translate(12.25 7.7)"/><path d="M-3.45 4.75.1 7.2l3.4-2.3" fill="none" stroke="#333" stroke-linecap="round" stroke-linejoin="round" transform="translate(12.25 7.7)"/><path d="m4.85 2.55-.5.05-1-.15q-1.05-.35-1.8-1.3Q.5-.2.4-1.95m7.65 1.5-.9 1.6q-1 1.2-2.3 1.4M-2.8 2.3l-1.5.35-1.1-.2q-.95-.3-1.7-1.25Q-7.7.5-8-.4m5.2 2.7 1.3-1.1Q-.45-.15-.35-1.95M-8-.4q-.3-.85-.25-1.85-.05-2 1.15-3.45Q-6-7.15-4.3-7.15q1.65 0 2.8 1.45t1.15 3.45v.3m.75 0v-.35Q.35-4.35 1.55-5.75q1.1-1.45 2.8-1.45 1.65 0 2.8 1.45Q8.3-4.35 8.3-2.3L8.05-.45" fill="none" stroke="#666" stroke-linecap="round" stroke-linejoin="round" transform="translate(12.25 7.7)"/><path d="M1.95-4.35q0 .25.15.4l.35.25.3-.25.15-.4-.15-.5-.3-.2q-.2 0-.35.2l-.15.5m.8-1.4q.55-.05.95.45.4.55.4 1.35t-.4 1.3q-.4.55-.95.55-.55 0-.95-.55-.4-.5-.4-1.3t.4-1.35q.4-.5.95-.45" fill-rule="evenodd" transform="translate(12.25 7.7)"/><path d="m1.95-4.35.15-.5q.15-.2.35-.2l.3.2.15.5-.15.4-.3.25-.35-.25q-.15-.15-.15-.4" fill="#fff" fill-rule="evenodd" transform="translate(12.25 7.7)"/><path d="m-6.7-4.35.15.4.35.25.3-.25q.15-.15.15-.4l-.15-.5q-.1-.2-.3-.2l-.35.2-.15.5m.8-1.4q.55-.05.95.45.4.55.4 1.35t-.4 1.3q-.4.55-.95.55-.55 0-.95-.55-.4-.5-.4-1.3t.4-1.35q.4-.5.95-.45" fill-rule="evenodd" transform="translate(12.25 7.7)"/><path d="m-6.7-4.35.15-.5.35-.2q.2 0 .3.2l.15.5q0 .25-.15.4l-.3.25-.35-.25-.15-.4" fill="#fff" fill-rule="evenodd" transform="translate(12.25 7.7)"/></g></defs></svg>

<?xml version="1.0" encoding="UTF-8" standalone="no"?>
<svg xmlns:xlink="http://www.w3.org/1999/xlink" height="100.8px" width="132.65px" xmlns="http://www.w3.org/2000/svg">
  <g transform="matrix(1.0, 0.0, 0.0, 1.0, 77.75, 73.55)">
    <use height="15.4" transform="matrix(1.0, 0.0, 0.0, 1.0, -12.25, -7.7)" width="24.45" xlink:href="#shape0"/>
  </g>
  <defs>
    <g id="shape0" transform="matrix(1.0, 0.0, 0.0, 1.0, 12.25, 7.7)">
      <path d="M8.05 -0.45 L8.65 -0.15 Q12.15 1.65 12.2 2.65 12.2 3.6 9.05 3.05 L4.85 2.55 Q6.15 2.35 7.15 1.15 L8.05 -0.45 M3.35 2.45 L0.9 2.3 -2.8 2.3 -1.5 1.2 Q-0.45 -0.15 -0.35 -1.95 L0.15 -1.95 0.4 -1.95 Q0.5 -0.2 1.55 1.15 2.3 2.1 3.35 2.45 M-5.4 2.45 L-8.15 2.85 -12.25 2.65 Q-12.25 1.7 -8.55 -0.1 L-8.0 -0.4 Q-7.7 0.5 -7.1 1.2 -6.35 2.15 -5.4 2.45" fill="#6596cc" fill-opacity="0.43137255" fill-rule="evenodd" stroke="none"/>
      <path d="M0.4 -1.95 L0.4 -2.3 Q0.35 -4.35 1.55 -5.75 2.65 -7.2 4.35 -7.2 6.0 -7.2 7.15 -5.75 8.3 -4.35 8.3 -2.3 L8.05 -0.45 7.15 1.15 Q6.15 2.35 4.85 2.55 L4.35 2.6 3.35 2.45 Q2.3 2.1 1.55 1.15 0.5 -0.2 0.4 -1.95 M-2.8 2.3 L-4.3 2.65 -5.4 2.45 Q-6.35 2.15 -7.1 1.2 -7.7 0.5 -8.0 -0.4 -8.3 -1.25 -8.25 -2.25 -8.3 -4.25 -7.1 -5.7 -6.0 -7.15 -4.3 -7.15 -2.65 -7.15 -1.5 -5.7 -0.35 -4.25 -0.35 -2.25 L-0.35 -1.95 Q-0.45 -0.15 -1.5 1.2 L-2.8 2.3" fill="#ffffff" fill-rule="evenodd" stroke="none"/>
      <path d="M-3.45 4.75 L0.1 7.2 3.5 4.9" fill="none" stroke="#333333" stroke-linecap="round" stroke-linejoin="round" stroke-width="1.0"/>
      <path d="M4.85 2.55 L4.35 2.6 3.35 2.45 Q2.3 2.1 1.55 1.15 0.5 -0.2 0.4 -1.95 M8.05 -0.45 L7.15 1.15 Q6.15 2.35 4.85 2.55" fill="none" stroke="#666666" stroke-linecap="round" stroke-linejoin="round" stroke-width="1.0"/>
      <path d="M-2.8 2.3 L-4.3 2.65 -5.4 2.45 Q-6.35 2.15 -7.1 1.2 -7.7 0.5 -8.0 -0.4 M-2.8 2.3 L-1.5 1.2 Q-0.45 -0.15 -0.35 -1.95" fill="none" stroke="#666666" stroke-linecap="round" stroke-linejoin="round" stroke-width="1.0"/>
      <path d="M-8.0 -0.4 Q-8.3 -1.25 -8.25 -2.25 -8.3 -4.25 -7.1 -5.7 -6.0 -7.15 -4.3 -7.15 -2.65 -7.15 -1.5 -5.7 -0.35 -4.25 -0.35 -2.25 L-0.35 -1.95" fill="none" stroke="#666666" stroke-linecap="round" stroke-linejoin="round" stroke-width="1.0"/>
      <path d="M0.4 -1.95 L0.4 -2.3 Q0.35 -4.35 1.55 -5.75 2.65 -7.2 4.35 -7.2 6.0 -7.2 7.15 -5.75 8.3 -4.35 8.3 -2.3 L8.05 -0.45" fill="none" stroke="#666666" stroke-linecap="round" stroke-linejoin="round" stroke-width="1.0"/>
      <path d="M1.95 -4.35 Q1.95 -4.1 2.1 -3.95 L2.45 -3.7 2.75 -3.95 2.9 -4.35 2.75 -4.85 2.45 -5.05 Q2.25 -5.05 2.1 -4.85 L1.95 -4.35 M2.75 -5.75 Q3.3 -5.8 3.7 -5.3 4.1 -4.75 4.1 -3.95 4.1 -3.15 3.7 -2.65 3.3 -2.1 2.75 -2.1 2.2 -2.1 1.8 -2.65 1.4 -3.15 1.4 -3.95 1.4 -4.75 1.8 -5.3 2.2 -5.8 2.75 -5.75" fill="#000000" fill-rule="evenodd" stroke="none"/>
      <path d="M1.95 -4.35 L2.1 -4.85 Q2.25 -5.05 2.45 -5.05 L2.75 -4.85 2.9 -4.35 2.75 -3.95 2.45 -3.7 2.1 -3.95 Q1.95 -4.1 1.95 -4.35" fill="#ffffff" fill-rule="evenodd" stroke="none"/>
      <path d="M-6.7 -4.35 L-6.55 -3.95 -6.2 -3.7 -5.9 -3.95 Q-5.75 -4.1 -5.75 -4.35 L-5.9 -4.85 Q-6.0 -5.05 -6.2 -5.05 L-6.55 -4.85 -6.7 -4.35 M-5.9 -5.75 Q-5.35 -5.8 -4.95 -5.3 -4.55 -4.75 -4.55 -3.95 -4.55 -3.15 -4.95 -2.65 -5.35 -2.1 -5.9 -2.1 -6.45 -2.1 -6.85 -2.65 -7.25 -3.15 -7.25 -3.95 -7.25 -4.75 -6.85 -5.3 -6.45 -5.8 -5.9 -5.75" fill="#000000" fill-rule="evenodd" stroke="none"/>
      <path d="M-6.7 -4.35 L-6.55 -4.85 -6.2 -5.05 Q-6.0 -5.05 -5.9 -4.85 L-5.75 -4.35 Q-5.75 -4.1 -5.9 -3.95 L-6.2 -3.7 -6.55 -3.95 -6.7 -4.35" fill="#ffffff" fill-rule="evenodd" stroke="none"/>
    </g>
  </defs>
</svg>
